X: 641
T: Red-House.
P: Longways for as many as will
%R: reel
B: "The Dancing-Master: Containing Directions and Tunes for Dancing" printed by W. Pearson for John Walsh, London ca. 1709
S: 7: DMDfD http://digital.nls.uk/special-collections-of-printed-music/pageturner.cfm?id=89751228 p.177
Z: 2013 John Chambers <jc:trillian.mit.edu>
N: The rhythms at the strain boundaries don't quite add up right, because the first strain has no pickup note(s).
M: C|
L: 1/8
K: Gm
% - - - - - - - - - - - - - - - - - - - - - - - - -
[|\
G2 g4 (fe) | d4 B4 | A2 f4 ed | c2 (dc) (dc) (BA) |\
G2 g4 (fe) | d4 B4 | (cB) (AG) (^FG) A2 | B2G2 G4 |]
[| (Bc) |\
(dc) (BA) (GA) (Bc) | d4 B4 | (cB) (AG) (FG) (AB) | c4 A4 |\
(dc) (BA) (GA) (Bc) | d4 B4 | (cB) (AG) (^FG) A2 | B2G2 G2 |]
[| (Bc) |\
d2d2 d2(Bc) | d2d2 d2AB | c2c2 c2AB | c2c2 c2Bc |\
d2d2 d2(Bc) | d2d2 d2AB | (cB) (AG) (^FG) A2 | B2G2 G2 |]
% - - - - - - - - - - - - - - - - - - - - - - - - -
%%begintext align
%% The 1. cu. meet and set, and cast off into the 2. cu. place .| Then meet and set again, and cast off into their own places :|
%% The 1. man cast off below the 2. man, and go above the 2. wo. into the 2. man's place, his wo. following him at the same
%% time .| Then the 2. wo. cast up above the 1. wo. and go below the 1. man into her own place, the 1. man following her
%% at the same time :| Then the 1. cu. and 2. man go the Hey till they come into their own places .| Then the 1. cu. and 2.
%% wo. go the Hey on the other side, and so cast off into the 2. cu. place :|
%% [DMDfD]
%%endtext
%%sep 1 8 500

%%sep 1 1 500
%%sep 1 1 500
